src/actions/22/object-order-back.svg

<svg xmlns="http://www.w3.org/2000/svg" viewBox="0 0 22 22">
  <defs id="defs3051">
    <style type="text/css" id="current-color-scheme">
      .ColorScheme-Text {
        color:#363636;
      }
      .ColorScheme-Highlight {
        color:#a0b6cb;
      }
      </style>
  </defs>
 <path 
     style="fill:currentColor;fill-opacity:1;stroke:none" 
     d="M 6 3 L 6 6.9394531 L 6 15.091797 L 3.71875 12.845703 L 3 13.554688 L 6.28125 16.785156 L 6.5 17 L 6.71875 16.785156 L 10 13.554688 L 9.28125 12.845703 L 7 15.091797 L 7 6.9394531 L 7 3 L 6 3 z M 10 4 L 10 5 L 19 5 L 19 4 L 10 4 z M 16 6 L 16 7 L 19 7 L 19 6 L 16 6 z M 12 8 L 12 9 L 19 9 L 19 8 L 12 8 z M 10 10 L 10 11 L 19 11 L 19 10 L 10 10 z M 15 12 L 15 13 L 19 13 L 19 12 L 15 12 z M 12 14 L 12 15 L 19 15 L 19 14 L 12 14 z M 11 16 L 11 17 L 19 17 L 19 16 L 11 16 z M 3 18 L 3 19 L 19 19 L 19 18 L 3 18 z "
     class="ColorScheme-Text"
     />
</svg>

<svg xmlns="http://www.w3.org/2000/svg" viewBox="0 0 22 22">
    <defs id="defs3051">
        <style id="current-color-scheme" type="text/css">
            .ColorScheme-Highlight{color:#a0b6cb}
        </style>
    </defs>
    <path d="M6 3V15.092l-2.281-2.246-.719.709 3.281 3.23L6.5 17l.219-.215L10 13.555l-.719-.71L7 15.093V3H6zm4 1v1h9V4h-9zm6 2v1h3V6h-3zm-4 2v1h7V8h-7zm-2 2v1h9v-1h-9zm5 2v1h4v-1h-4zm-3 2v1h7v-1h-7zm-1 2v1h8v-1h-8zm-8 2v1h16v-1H3z" style="fill:currentColor;fill-opacity:1;stroke:none;color:#050505;opacity:.7"/>
</svg>
